X:1
T:51
T:Hugo Distler
T:Martin Luther (1483 - 1546)
T:51.  O Grant Us Peace, Most Merciful One Verleih uns Frieden gnädiglich Prayers
T:Bärenreiter
T:Bärenreiter
C:Hugo Distler
Z:Martin Luther
Z:(1483 - 1546)
Z:Bärenreiter
%%score [ ( 1 2 ) ( 3 4 ) 5 ]
L:1/8
Q:1/4=85
M:4/4
K:C
V:1 treble nm="Sop."
V:2 treble 
V:3 treble nm="Alto"
V:4 treble 
V:5 bass nm="Bar."
V:1
 A2 | A4 !breath!A2 A2 |[M:5/4] A4 A2 G2 A2 |[M:4/4] (c4 A2 c2 | d2 e2) d2 c2 | A4 z2 c2 | %6
w: O|grant us, O|grant us peace, most|mer- * *|* * ci- ful|One, Lord|
 d2 d2 c2 B2 | (e3 d c4) | B4 z2 z e | e2 d (e2 d) c2 | d2 B2 !breath!AA G2 | A2 c4 d2 | %12
w: God, in time of|per- * *|il! In|truth, there is _ no|oth- er one who for|us will do|
[M:6/4] (A3 G c>c B A2 G/F/ G2) | !breath!A2 d4 !breath!e4 e2 |[M:4/4] d2 A2 c2 c2 | %15
w: bat- * * * * * * * *|tle than You, You,|ho- ly God, a-|
 (B2 c2 !breath!!fermata!A2) A2 | A4 A2 A2 |[M:5/4] A4 !breath!A2 G2 A2 |[M:4/4] (c4 A2 c2 | %19
w: lone. _ _ O|grant us, O|grant us peace, most|mer- * *|
 d2) e2 d4 | [^ce]8 |] %21
w: * ci- ful|One.|
V:2
 x2 | x8 |[M:5/4] x10 |[M:4/4] x8 | x8 | x8 | x8 | x8 | x8 | x8 | x8 | x8 |[M:6/4] x12 | x12 | %14
w: ||||||||||||||
[M:4/4] x8 | x8 | x8 |[M:5/4] x8 A2 |[M:4/4] (c4 A2 c2 | d2 e2) d2 B2 | A8 |] %21
w: |||most|mer- * *|* * ci- ful|One.|
V:3
 E2 | E4 !breath!E2 E2 |[M:5/4] E4 E2 D2 E2 |[M:4/4] (G4 E2 G2 | A2 B2) A2 G2 | %5
w: O|grant us, O|grant us peace, most|mer- * *|* * ci- ful|
 !breath!E2 E2 F2 E2 | A2 A2 (A3 G | AB c3 B A2) | !breath!^G2 A2 A2 =G2 | A2 F2 G2 E2 | %10
w: One, Lord God, in|time of per- *||il! In truth, there|is no oth- er|
 !breath!D2 D2 C2 D2 | F2 G2 (E2 D2- |[M:6/4] DE F2) !breath!E2 (D3 E F2) | %13
w: one who for us|will do bat- *|* * * tle, bat- * *|
 !breath!E2 B4 !breath!G4 c2 |[M:4/4] (A3 G) F2 E2 | (E2 F2) !breath!!fermata!E2 E2 | %16
w: tle than You, You,|ho- * ly *|* * lone. O|
 E4 !breath!E2 E2 |[M:5/4] E4 E2 D2 E2 |[M:4/4] (G4 E2 G2 | A2 B2) A2 G2 | E8 |] %21
w: grant us, O|grant us peace, most|mer- * *|* * ci- ful|One.|
V:4
 x2 | x8 |[M:5/4] x10 |[M:4/4] x8 | x8 | x8 | x8 | x8 | x8 | x8 | x8 | x8 |[M:6/4] x12 | x12 | %14
w: ||||||||||||||
[M:4/4] x6 E2 | (E3 D) !fermata!C4 | z6 E2 |[M:5/4] x10 |[M:4/4] x8 | x8 | x8 |] %21
w: God,|a- * *||||||
V:5
 z2 | z2 A,2 A,4 |[M:5/4] !breath!A,2 A,2 A,4 A,2 |[M:4/4] G,2 A,2 (C4- | C2 B,3) A, G,2 | A,8 | %6
w: |O grant|us, O grant us|peace, most mer-|* * ci- ful|One,|
 z2 E,2 F,2 F,2 | (E,2 F,2) A,4 | E,4 z2 z C | CC C2 B,2 (B,2- | B,A,) G,2 A,4 | z2 A,2 G,2 A,2 | %12
w: Lord God, in|time of per-|il! In|truth, there is no oth-|* * er one|who for us|
[M:6/4] C2 D2 (A,2 B, C2 B,/A,/ B,2) | !breath!A,2 G,4 !breath!C4 A,2 |[M:4/4] D2 C2 B,2 A,2 | %15
w: will do bat- * * * * *|tle than You, You,|ho- ly God, a-|
 (G,4 !fermata!A,4) | z2 A,2 A,4 |[M:5/4] !breath!A,2 A,2 A,4 A,2 |[M:4/4] G,2 A,2 (C4- | %19
w: lone. _|O grant|us, O grant us|peace, most mer-|
 C2 B,3) A, G,2 | A,8 |] %21
w: * * ci- ful|One.|

